app/client/src/assets/icons/blueprintjs/20px/mountain.svg

<svg xmlns="http://www.w3.org/2000/svg" width="20" height="20"><path fill-rule="evenodd" d="M20 16H4l7-11h1l2 2h1l5 9Zm-4-5-1.5-3h-1l-1-1-1-1L8 11.5l3-1.5 1 1 1-1 3 1ZM8.055 8 2.79 16H0l7-8h1.055Z"/></svg>

<?xml version="1.0" encoding="UTF-8"?>
<svg width="20px" height="20px" viewBox="0 0 20 20" version="1.1" xmlns="http://www.w3.org/2000/svg" xmlns:xlink="http://www.w3.org/1999/xlink">
    <!-- Generator: Sketch 49.1 (51147) - http://www.bohemiancoding.com/sketch -->
    <title>Artboard 2 Copy</title>
    <desc>Created with Sketch.</desc>
    <defs></defs>
    <g id="Artboard-2-Copy" stroke="none" stroke-width="1" fill="none" fill-rule="evenodd">
        <path d="M20,16 L4,16 L11,5 L12,5 L14,7 L15,7 L20,16 Z M16,11 L14.5,8 L13.5,8 L12.5,7 L11.5,6 L8,11.5 L11,10 L12,11 L13,10 L16,11 Z M8.05455983,8 L2.78960257,16 L0,16 L7,8 L8.05455983,8 Z" id="Combined-Shape" fill="#000000"></path>
    </g>
</svg>
